dist/assets/img/icon-list.svg

<?xml version="1.0" encoding="UTF-8"?>
<svg width="68px" height="70px" viewBox="0 0 68 70" version="1.1" xmlns="http://www.w3.org/2000/svg" xmlns:xlink="http://www.w3.org/1999/xlink">
    <!-- Generator: Sketch 46.2 (44496) - http://www.bohemiancoding.com/sketch -->
    <title>list</title>
    <desc>Created with Sketch.</desc>
    <defs></defs>
    <g id="04---Web-Site" stroke="none" stroke-width="1" fill="none" fill-rule="evenodd">
        <g id="Landing-page" transform="translate(-1039.000000, -2143.000000)" fill-rule="nonzero">
            <g id="section" transform="translate(241.000000, 2048.000000)">
                <g id="list" transform="translate(0.000000, 95.000000)">
                    <g id="#3" transform="translate(702.000000, 0.000000)">
                        <g id="list" transform="translate(96.000000, 0.000000)">
                            <path d="M67.442807,67.9233333 L60.1124561,60.2552632 C62.2566667,57.8998246 63.575614,54.7805263 63.575614,51.3517544 C63.575614,44.0410526 57.6280702,38.0935088 50.3173684,38.0935088 C43.0066667,38.0935088 37.0591228,44.0410526 37.0591228,51.3517544 C37.0591228,58.6624561 43.0066667,64.6087719 50.3173684,64.6087719 C53.3150877,64.6087719 56.0745614,63.5968421 58.2985965,61.9119298 L65.6682456,69.6205263 C65.9089474,69.8722807 66.2319298,70 66.5549123,70 C66.8607018,70 67.1652632,69.8870175 67.4035088,69.6598246 C67.8935088,69.1907018 67.9119298,68.4133333 67.442807,67.9233333 Z M39.5152632,51.3505263 C39.5152632,45.394386 44.3612281,40.5484211 50.3173684,40.5484211 C56.2735088,40.5484211 61.1194737,45.394386 61.1194737,51.3505263 C61.1194737,57.3066667 56.2735088,62.1526316 50.3173684,62.1526316 C44.3612281,62.1526316 39.5152632,57.3066667 39.5152632,51.3505263 Z" id="Shape" fill="#196DFF"></path>
                            <path d="M33.3749123,14.7368421 C32.6957895,14.7368421 32.1468421,15.2857895 32.1468421,15.9649123 C32.1468421,16.6440351 32.6957895,17.1929825 33.3749123,17.1929825 L55.4801754,17.1929825 C56.1592982,17.1929825 56.7082456,16.6440351 56.7082456,15.9649123 C56.7082456,15.2857895 56.1592982,14.7368421 55.4801754,14.7368421 L33.3749123,14.7368421 Z" id="Shape" fill="#4A4A4A"></path>
                            <path d="M56.7082456,33.1578947 C56.7082456,32.4787719 56.1592982,31.9298246 55.4801754,31.9298246 L33.3749123,31.9298246 C32.6957895,31.9298246 32.1468421,32.4787719 32.1468421,33.1578947 C32.1468421,33.8370175 32.6957895,34.3859649 33.3749123,34.3859649 L55.4801754,34.3859649 C56.1592982,34.3859649 56.7082456,33.8370175 56.7082456,33.1578947 Z" id="Shape" fill="#4A4A4A"></path>
                            <path d="M25.4894737,8.89245614 C24.9773684,8.45157895 24.1987719,8.50929825 23.7591228,9.02508772 L16.0861404,17.9752632 L11.3924561,14.455614 C10.8521053,14.0503509 10.0821053,14.157193 9.67438596,14.7012281 C9.26666667,15.242807 9.37719298,16.012807 9.92,16.4192982 L15.5335088,20.6303509 C15.7533333,20.7961404 16.0124561,20.8759649 16.2691228,20.8759649 C16.6166667,20.8759649 16.9605263,20.7298246 17.2024561,20.4461404 L25.6233333,10.6215789 C26.0654386,10.1082456 26.0052632,9.3345614 25.4894737,8.89245614 Z" id="Shape" fill="#4A4A4A"></path>
                            <path d="M25.4894737,26.0854386 C24.9773684,25.6445614 24.1987719,25.7022807 23.7591228,26.2180702 L16.0861404,35.1682456 L11.3924561,31.6485965 C10.8521053,31.2433333 10.0821053,31.3501754 9.67438596,31.8942105 C9.26666667,32.4357895 9.37719298,33.2057895 9.92,33.6122807 L15.5335088,37.8233333 C15.7533333,37.9891228 16.0124561,38.0689474 16.2691228,38.0689474 C16.6166667,38.0689474 16.9605263,37.922807 17.2024561,37.6391228 L25.6233333,27.8145614 C26.0654386,27.3012281 26.0052632,26.5275439 25.4894737,26.0854386 Z" id="Shape" fill="#4A4A4A"></path>
                            <path d="M23.7591228,44.6403509 L16.0861404,53.5892982 L11.3924561,50.0696491 C10.8521053,49.6631579 10.0821053,49.7712281 9.67438596,50.3152632 C9.26666667,50.8568421 9.37719298,51.6268421 9.92,52.0333333 L15.5335088,56.244386 C15.7533333,56.4101754 16.0124561,56.49 16.2691228,56.49 C16.6166667,56.49 16.9605263,56.3438596 17.2024561,56.0601754 L25.6233333,46.2368421 C26.0654386,45.7222807 26.0064912,44.9473684 25.4907018,44.5064912 C24.9773684,44.065614 24.1987719,44.1245614 23.7591228,44.6403509 Z" id="Shape" fill="#4A4A4A"></path>
                            <path d="M32.1468421,63.8596491 L15.17,63.8596491 C8.27807018,63.8596491 2.67315789,58.2547368 2.67315789,51.362807 L2.67315789,14.9529825 C2.67315789,8.06105263 8.27807018,2.45614035 15.17,2.45614035 L51.5798246,2.45614035 C58.4705263,2.45614035 64.0766667,8.06105263 64.0766667,14.9529825 L64.0766667,40.5263158 C64.0766667,41.2054386 64.625614,41.754386 65.3047368,41.754386 C65.9838596,41.754386 66.532807,41.2054386 66.532807,40.5263158 L66.532807,14.9529825 C66.532807,6.7077193 59.8250877,0 51.5798246,0 L15.17,0 C6.92473684,0 0.217017544,6.7077193 0.217017544,14.9529825 L0.217017544,51.362807 C0.217017544,59.6080702 6.92473684,66.3157895 15.17,66.3157895 L32.1468421,66.3157895 C32.8259649,66.3157895 33.3749123,65.7668421 33.3749123,65.0877193 C33.3749123,64.4085965 32.8259649,63.8596491 32.1468421,63.8596491 Z" id="Shape" fill="#4A4A4A"></path>
                        </g>
                    </g>
                </g>
            </g>
        </g>
    </g>
</svg>

<svg width="68" height="70" viewBox="0 0 68 70" xmlns="http://www.w3.org/2000/svg"><title>list</title><g fill-rule="nonzero" fill="none"><path d="M67.443 67.923l-7.33-7.668c2.144-2.355 3.463-5.474 3.463-8.903 0-7.31-5.948-13.258-13.259-13.258-7.31 0-13.258 5.947-13.258 13.258 0 7.31 5.948 13.257 13.258 13.257 2.998 0 5.758-1.012 7.982-2.697l7.37 7.709a1.224 1.224 0 0 0 1.735.039c.49-.47.508-1.247.039-1.737zM39.515 51.351c0-5.957 4.846-10.803 10.802-10.803 5.957 0 10.802 4.846 10.802 10.803 0 5.956-4.845 10.802-10.802 10.802-5.956 0-10.802-4.846-10.802-10.802z" fill="#196DFF"/><path d="M33.375 14.737a1.227 1.227 0 1 0 0 2.456H55.48a1.227 1.227 0 1 0 0-2.456H33.375zM56.708 33.158c0-.68-.549-1.228-1.228-1.228H33.375a1.227 1.227 0 1 0 0 2.456H55.48c.68 0 1.228-.549 1.228-1.228zM25.49 8.892a1.226 1.226 0 0 0-1.73.133l-7.674 8.95-4.694-3.52A1.227 1.227 0 1 0 9.92 16.42l5.614 4.211a1.222 1.222 0 0 0 1.669-.184l8.42-9.824a1.224 1.224 0 0 0-.134-1.73zM25.49 26.085a1.226 1.226 0 0 0-1.73.133l-7.674 8.95-4.694-3.52a1.227 1.227 0 1 0-1.472 1.964l5.614 4.211a1.222 1.222 0 0 0 1.669-.184l8.42-9.824a1.224 1.224 0 0 0-.134-1.73zM23.76 44.64l-7.674 8.95-4.694-3.52a1.226 1.226 0 1 0-1.472 1.963l5.614 4.211a1.222 1.222 0 0 0 1.669-.184l8.42-9.823a1.228 1.228 0 0 0-1.864-1.596z" fill="#4A4A4A"/><path d="M32.147 63.86H15.17c-6.892 0-12.497-5.605-12.497-12.497v-36.41c0-6.892 5.605-12.497 12.497-12.497h36.41c6.89 0 12.497 5.605 12.497 12.497v25.573a1.227 1.227 0 1 0 2.456 0V14.953C66.533 6.708 59.825 0 51.58 0H15.17C6.925 0 .217 6.708.217 14.953v36.41c0 8.245 6.708 14.953 14.953 14.953h16.977a1.227 1.227 0 1 0 0-2.456z" fill="#4A4A4A"/></g></svg>
